docs/.gitbook/assets/chain-icons/dymension.svg

<svg version="1.1" id="Layer_1" xmlns="http://www.w3.org/2000/svg" xmlns:xlink="http://www.w3.org/1999/xlink" x="0px" y="0px"
	 width="100%" viewBox="0 0 144 144" enable-background="new 0 0 144 144" xml:space="preserve">
<path fill="#252120" opacity="1.000000" stroke="none" 
	d="
M88.000000,145.000000 
	C58.691711,145.000000 29.883423,145.000000 1.037568,145.000000 
	C1.037568,97.066765 1.037568,49.133492 1.037568,1.100108 
	C48.891380,1.100108 96.783035,1.100108 144.837341,1.100108 
	C144.837341,48.999554 144.837341,96.999733 144.837341,145.000000 
	C126.133873,145.000000 107.316933,145.000000 88.000000,145.000000 
M33.560993,93.883453 
	C43.284710,94.024567 49.004543,87.205025 54.559387,81.464653 
	C58.104076,84.638885 61.302166,87.502747 66.193245,91.882660 
	C63.189747,94.040947 59.840652,95.380447 58.221767,97.852852 
	C55.577278,101.891571 52.971523,106.511360 52.299255,111.167519 
	C50.988308,120.247192 57.448826,129.376038 65.822487,132.220734 
	C75.021889,135.345947 84.632362,132.075394 89.953842,124.008560 
	C95.035622,116.305092 94.300461,105.407707 88.151657,98.486938 
	C85.851791,95.898331 83.396599,93.447723 80.996162,90.917259 
	C84.374115,87.529846 87.496323,84.398903 91.007477,80.877922 
	C93.097054,83.147598 95.028465,85.447433 97.167938,87.533913 
	C105.755356,95.908623 118.003624,95.923462 126.218689,87.644554 
	C134.396133,79.403549 134.433273,66.238800 126.302406,57.975986 
	C118.145447,49.686649 105.797096,49.586514 97.270798,57.879547 
	C95.057472,60.032318 93.219559,62.571060 91.522324,64.564713 
	C87.326462,60.792274 84.122978,57.912071 80.057541,54.256901 
	C82.765633,51.944229 85.217522,50.199173 87.248131,48.055119 
	C95.483643,39.359535 95.310089,26.084608 86.995461,17.944456 
	C78.979240,10.096453 66.684441,10.024024 58.644951,17.777437 
	C50.045254,26.071127 49.816116,38.789547 58.126904,47.792885 
	C60.224121,50.064865 62.386421,52.276768 63.859970,53.824345 
	C60.688248,57.594711 57.858788,60.958214 54.734692,64.671967 
	C52.025036,61.805130 49.881927,59.234245 47.431358,57.000690 
	C39.396915,49.677734 27.093044,49.989147 19.421408,57.700424 
	C13.334811,63.818474 11.612590,71.284172 14.220149,79.336357 
	C17.057766,88.098961 23.611315,92.760117 33.560993,93.883453 
z"/>
<path fill="#ECDDD0" opacity="1.000000" stroke="none" 
	d="
M33.139214,93.871017 
	C23.611315,92.760117 17.057766,88.098961 14.220149,79.336357 
	C11.612590,71.284172 13.334811,63.818474 19.421408,57.700424 
	C27.093044,49.989147 39.396915,49.677734 47.431358,57.000690 
	C49.881927,59.234245 52.025036,61.805130 54.734692,64.671967 
	C57.858788,60.958214 60.688248,57.594711 63.859970,53.824345 
	C62.386421,52.276768 60.224121,50.064865 58.126904,47.792885 
	C49.816116,38.789547 50.045254,26.071127 58.644951,17.777437 
	C66.684441,10.024024 78.979240,10.096453 86.995461,17.944456 
	C95.310089,26.084608 95.483643,39.359535 87.248131,48.055119 
	C85.217522,50.199173 82.765633,51.944229 80.057541,54.256901 
	C84.122978,57.912071 87.326462,60.792274 91.522324,64.564713 
	C93.219559,62.571060 95.057472,60.032318 97.270798,57.879547 
	C105.797096,49.586514 118.145447,49.686649 126.302406,57.975986 
	C134.433273,66.238800 134.396133,79.403549 126.218689,87.644554 
	C118.003624,95.923462 105.755356,95.908623 97.167938,87.533913 
	C95.028465,85.447433 93.097054,83.147598 91.007477,80.877922 
	C87.496323,84.398903 84.374115,87.529846 80.996162,90.917259 
	C83.396599,93.447723 85.851791,95.898331 88.151657,98.486938 
	C94.300461,105.407707 95.035622,116.305092 89.953842,124.008560 
	C84.632362,132.075394 75.021889,135.345947 65.822487,132.220734 
	C57.448826,129.376038 50.988308,120.247192 52.299255,111.167519 
	C52.971523,106.511360 55.577278,101.891571 58.221767,97.852852 
	C59.840652,95.380447 63.189747,94.040947 66.193245,91.882660 
	C61.302166,87.502747 58.104076,84.638885 54.559387,81.464653 
	C49.004543,87.205025 43.284710,94.024567 33.139214,93.871017 
M104.690971,64.896759 
	C102.116417,67.437988 99.541862,69.979210 95.833588,73.639473 
	C98.256462,75.473602 100.394096,77.069016 102.503731,78.700623 
	C103.291092,79.309570 103.957855,80.083542 104.774475,80.644035 
	C108.475197,83.184029 114.491562,82.863113 117.782082,79.882896 
	C121.313797,76.684235 121.935867,72.712669 120.048996,68.511070 
	C117.776695,63.451214 112.537422,62.110752 104.690971,64.896759 
M73.924820,100.122543 
	C71.114494,102.265923 67.911301,104.055359 65.586349,106.636017 
	C62.138233,110.463326 62.909107,116.328865 66.670105,119.633759 
	C70.265579,122.793198 75.383690,122.728745 78.957733,119.479050 
	C82.748428,116.032356 83.262383,110.535194 79.967529,106.439545 
	C78.305763,104.373909 76.292603,102.590958 73.924820,100.122543 
M33.590828,63.275726 
	C28.393963,63.664707 25.283829,66.600281 24.545755,71.574257 
	C23.903481,75.902657 25.849884,79.341492 29.855881,81.293747 
	C34.410423,83.513344 38.148830,81.958900 41.380836,78.474052 
	C43.165512,76.549767 45.004883,74.676208 47.758080,71.799042 
	C42.990135,68.768860 38.673149,66.025284 33.590828,63.275726 
M65.568604,27.069035 
	C61.469257,34.081383 62.851665,37.751770 73.300743,46.454407 
	C75.126526,44.450100 77.023308,42.389446 78.896248,40.307350 
	C83.018250,35.725018 83.219231,30.438799 79.438049,26.467068 
	C75.849159,22.697329 71.133568,22.698946 65.568604,27.069035 
M69.525108,66.098366 
	C67.183319,67.929817 64.841530,69.761269 61.970970,72.006264 
	C66.452454,76.037384 69.725609,78.981606 72.712189,81.668053 
	C75.878944,78.854965 79.185989,75.917259 82.549568,72.929329 
	C79.080383,69.347717 76.004616,66.172272 72.361763,62.411366 
	C71.409462,63.732822 70.727623,64.678970 69.525108,66.098366 
z"/>
<path fill="#2B2725" opacity="1.000000" stroke="none" 
	d="
M104.991043,64.662094 
	C112.537422,62.110752 117.776695,63.451214 120.048996,68.511070 
	C121.935867,72.712669 121.313797,76.684235 117.782082,79.882896 
	C114.491562,82.863113 108.475197,83.184029 104.774475,80.644035 
	C103.957855,80.083542 103.291092,79.309570 102.503731,78.700623 
	C100.394096,77.069016 98.256462,75.473602 95.833588,73.639473 
	C99.541862,69.979210 102.116417,67.437988 104.991043,64.662094 
z"/>
<path fill="#2A2624" opacity="1.000000" stroke="none" 
	d="
M74.181580,100.401367 
	C76.292603,102.590958 78.305763,104.373909 79.967529,106.439545 
	C83.262383,110.535194 82.748428,116.032356 78.957733,119.479050 
	C75.383690,122.728745 70.265579,122.793198 66.670105,119.633759 
	C62.909107,116.328865 62.138233,110.463326 65.586349,106.636017 
	C67.911301,104.055359 71.114494,102.265923 74.181580,100.401367 
z"/>
<path fill="#2A2625" opacity="1.000000" stroke="none" 
	d="
M33.973495,63.278713 
	C38.673149,66.025284 42.990135,68.768860 47.758080,71.799042 
	C45.004883,74.676208 43.165512,76.549767 41.380836,78.474052 
	C38.148830,81.958900 34.410423,83.513344 29.855881,81.293747 
	C25.849884,79.341492 23.903481,75.902657 24.545755,71.574257 
	C25.283829,66.600281 28.393963,63.664707 33.973495,63.278713 
z"/>
<path fill="#2A2524" opacity="1.000000" stroke="none" 
	d="
M65.817711,26.770344 
	C71.133568,22.698946 75.849159,22.697329 79.438049,26.467068 
	C83.219231,30.438799 83.018250,35.725018 78.896248,40.307350 
	C77.023308,42.389446 75.126526,44.450100 73.300743,46.454407 
	C62.851665,37.751770 61.469257,34.081383 65.817711,26.770344 
z"/>
<path fill="#2C2726" opacity="1.000000" stroke="none" 
	d="
M69.785446,65.861740 
	C70.727623,64.678970 71.409462,63.732822 72.361763,62.411366 
	C76.004616,66.172272 79.080383,69.347717 82.549568,72.929329 
	C79.185989,75.917259 75.878944,78.854965 72.712189,81.668053 
	C69.725609,78.981606 66.452454,76.037384 61.970970,72.006264 
	C64.841530,69.761269 67.183319,67.929817 69.785446,65.861740 
z"/>
</svg>

<svg xmlns="http://www.w3.org/2000/svg" xml:space="preserve" viewBox="0 0 144 144"><path fill="#252120" d="M88 145H1.038V1.1h143.8V145H88M33.561 93.883c9.724.142 15.444-6.678 20.998-12.418l11.634 10.418c-3.003 2.158-6.352 3.497-7.971 5.97-2.645 4.039-5.25 8.658-5.923 13.315-1.31 9.08 5.15 18.208 13.523 21.053 9.2 3.125 18.81-.146 24.132-8.212 5.082-7.704 4.346-18.601-1.802-25.522-2.3-2.589-4.755-5.04-7.156-7.57l10.011-10.04c2.09 2.27 4.021 4.57 6.16 6.657 8.588 8.375 20.837 8.39 29.052.11 8.177-8.24 8.214-21.405.083-29.668-8.157-8.29-20.505-8.39-29.031-.096-2.214 2.152-4.051 4.691-5.749 6.685L80.058 54.257c2.708-2.313 5.16-4.058 7.19-6.202 8.236-8.695 8.062-21.97-.253-30.11-8.016-7.849-20.31-7.921-28.35-.168-8.6 8.294-8.829 21.013-.518 30.016 2.097 2.272 4.26 4.484 5.733 6.031l-9.125 10.848c-2.71-2.867-4.853-5.438-7.304-7.671-8.034-7.323-20.338-7.012-28.01.7-6.086 6.117-7.808 13.583-5.2 21.635 2.837 8.763 9.39 13.424 19.34 14.547z"/><path fill="#ECDDD0" d="M33.14 93.871c-9.529-1.11-16.082-5.772-18.92-14.535-2.607-8.052-.885-15.518 5.201-21.636 7.672-7.71 19.976-8.022 28.01-.7 2.45 2.234 4.594 4.805 7.304 7.672l9.125-10.848c-1.474-1.547-3.636-3.76-5.733-6.031-8.31-9.003-8.082-21.722.518-30.016 8.04-7.753 20.334-7.68 28.35.167 8.315 8.14 8.489 21.416.253 30.111-2.03 2.144-4.482 3.89-7.19 6.202l11.464 10.308c1.698-1.994 3.535-4.533 5.749-6.685 8.526-8.293 20.874-8.193 29.031.096 8.131 8.263 8.094 21.428-.083 29.669-8.215 8.278-20.464 8.264-29.051-.111-2.14-2.087-4.07-4.386-6.16-6.656-3.512 3.52-6.634 6.652-10.012 10.04 2.4 2.53 4.856 4.98 7.156 7.569 6.148 6.92 6.884 17.818 1.802 25.522-5.322 8.066-14.932 11.337-24.132 8.212-8.373-2.845-14.834-11.974-13.523-21.053.673-4.657 3.278-9.276 5.923-13.315 1.619-2.473 4.968-3.812 7.971-5.97L54.56 81.465c-5.554 5.74-11.274 12.56-21.42 12.406m71.552-28.974-8.857 8.742c2.422 1.835 4.56 3.43 6.67 5.062.787.609 1.454 1.383 2.27 1.943 3.701 2.54 9.718 2.22 13.008-.761 3.532-3.199 4.154-7.17 2.267-11.372-2.272-5.06-7.512-6.4-15.358-3.614m-30.766 35.226c-2.81 2.143-6.014 3.932-8.339 6.513-3.448 3.827-2.677 9.693 1.084 12.998 3.596 3.16 8.714 3.095 12.288-.155 3.79-3.447 4.304-8.944 1.01-13.04-1.662-2.065-3.675-3.848-6.043-6.316M33.59 63.276c-5.197.389-8.307 3.324-9.045 8.298-.643 4.329 1.304 7.767 5.31 9.72 4.554 2.22 8.293.665 11.525-2.82 1.785-1.924 3.624-3.798 6.377-6.675-4.768-3.03-9.085-5.774-14.167-8.523m31.978-36.207c-4.1 7.012-2.717 10.683 7.732 19.385 1.826-2.004 3.722-4.065 5.595-6.147 4.122-4.582 4.323-9.868.542-13.84-3.589-3.77-8.304-3.768-13.87.602m3.957 39.03c-2.342 1.83-4.683 3.662-7.554 5.907l10.741 9.662 9.838-8.739-10.188-10.518c-.953 1.322-1.634 2.268-2.837 3.687z"/><path fill="#2B2725" d="M104.991 64.662c7.546-2.551 12.786-1.21 15.058 3.85 1.887 4.2 1.265 8.172-2.267 11.37-3.29 2.981-9.307 3.302-13.008.762-.816-.56-1.483-1.334-2.27-1.943-2.11-1.632-4.248-3.227-6.67-5.062 3.708-3.66 6.282-6.201 9.157-8.977z"/><path fill="#2A2624" d="M74.182 100.401c2.11 2.19 4.124 3.973 5.786 6.039 3.294 4.095 2.78 9.592-1.01 13.04-3.574 3.249-8.692 3.313-12.288.154-3.76-3.305-4.532-9.17-1.084-12.998 2.325-2.58 5.528-4.37 8.596-6.235z"/><path fill="#2A2625" d="M33.973 63.279c4.7 2.746 9.017 5.49 13.785 8.52-2.753 2.877-4.592 4.75-6.377 6.675-3.232 3.485-6.97 5.04-11.525 2.82-4.006-1.953-5.953-5.391-5.31-9.72.738-4.974 3.848-7.91 9.427-8.295z"/><path fill="#2A2524" d="M65.818 26.77c5.316-4.071 10.031-4.073 13.62-.303 3.781 3.972 3.58 9.258-.542 13.84-1.873 2.082-3.77 4.143-5.595 6.147-10.45-8.702-11.832-12.373-7.483-19.684z"/><path fill="#2C2726" d="M69.785 65.862c.943-1.183 1.624-2.13 2.577-3.45L82.55 72.928l-9.838 8.74-10.741-9.663c2.87-2.245 5.212-4.076 7.814-6.144z"/></svg>
